X:1
T:Title
%%score { ( 1 3 4 ) | ( 2 5 ) }
L:1/8
M:9/8
K:Eb
V:1 treble nm="Grand Piano"
V:3 treble 
V:4 treble 
V:2 bass 
V:5 bass 
V:1
 z3 z3[Q:1/4=111] G2 F | z2 B, B,2 D E2 c | B6 z3 | [DF]6 z3 | [EG]6 z3 | G6 z3 | c6 z3 | %7
 [FB]6 z3 |[M:3/4] [B,DB]6 |[M:3/8] BcB |[M:9/8] .[Ge]6 z3 | [B,DFA]6 ABA | .[Ad]6 z3 | G6 BcB | %14
 [Ge]6 z3 | [Ac]6 z3 |[M:11/8] [Ge] [GB]3 E2 F G3 [DF] |[M:3/4] FE- E4 |] %18
V:2
 z9 | [E,G,B,]2 [E,G,] .[E,G,]3 z2 [E,A,E] | [E,G,E]2 [E,G,] [E,G,]3[K:treble] A2 G | %3
 B,,2 B,, z2 _D [B,,B,]3 | [E,B,]2 E, E,3 z3 | [G,=B,F]2 [G,B,] .[G,B,]3 z2 [G,B,F] | %6
 [C,C]2 [C,G,] [C,G,]3[K:treble] EFG | F,F,F, F,2 [F,CF] [F,B,F]2 [F,=A,E] |[M:3/4] B,,6 | %9
[M:3/8][K:treble] A2 A |[M:9/8][K:bass] [E,B,]2 E, E,[E,B,][E,E] [E,E]2 [E,E] | %11
 B,,6[K:treble] FGF | B,2 B, B,[B,EA][B,DA] [B,F]2[K:bass] [B,,B,] | [E,B,E]6[K:treble] GAG | %14
 [E,B,]E,E, E,2 [E,B,] [E,B,]2 [G,E] | [A,E]2 A, A,3 [F,B,]2 [F,B,] | %16
[M:11/8] [E,B,] [E,E]3 [G,B,]2 [A,CE] [B,E]3 [B,,A,] |[M:3/4] [E,A,B,][E,G,B,]- [E,G,B,]4 |] %18
V:3
 x9 | E6 z3 | z2 E E3 c2 B | B,2 B, z2 =E [DF]2 [FA] | z2 B, B,3 G2 G | z2 F F2 G A2 G | %6
 E2 E E3 cde | DDD D2 =A d2 c |[M:3/4] x6 |[M:3/8] x3 |[M:9/8] z2 B, B,[Bd][Ac] [GB]2 [_G=A] | x9 | %12
 F2 F FcB A2 [DB] | x9 | z B,B, B,2 [Af] [Ge]2 [Bd] | z2 E E3 [Ad]2 [Ad] |[M:11/8] x11 | %17
[M:3/4] x6 |] %18
V:4
 x9 | x9 | x9 | z3 B,3 z3 | x9 | x9 | x9 | x9 |[M:3/4] x6 |[M:3/8] x3 |[M:9/8] x9 | x9 | x9 | x9 | %14
 x9 | x9 |[M:11/8] x11 |[M:3/4] x6 |] %18
V:5
 x9 | x9 | x6[K:treble] x3 | z3 B,,3 z3 | x9 | x9 | x6[K:treble] x3 | x9 |[M:3/4] x6 | %9
[M:3/8][K:treble] x3 |[M:9/8][K:bass] x9 | x6[K:treble] x3 | x8[K:bass] x | x6[K:treble] x3 | x9 | %15
 x9 |[M:11/8] x11 |[M:3/4] x6 |] %18

